X: 3138
T: Beautiful Gortree
R: reel
M: 4/4
K: Emajor
E2GB ~c3e|gffe cBGF|~E2GB cGBc|ecBG F2GF|
E2GB g2bg|fBgf ecBe|~g2fe cBec|BEGF E4:|
|:g2fe bege|efge ceBe|gffe b2ge|ceBe ceef|
~g2ge bege|efge ~c3e|bgfe fgec|1 Bcef geef:|2 Bcef geec||
|:BE (3EEE E2GB|cBGB ~g2bg|~f3a gffe|bgfe c2BG|
E2BE GFEG|(3BBB GB egbg|feea g2ec|1 Bcef geec:|2 Bcef geez||

